Origami/64x64/apps/gps.svg

<svg width="64" height="64" version="1" xmlns="http://www.w3.org/2000/svg">
 <path d="m 26,5 0,4.78125 A 24,24 0 0 0 8.7890624,27 L 4,27 4,39 8.78125,39 A 24,24 0 0 0 26,56.210938 L 26,61 38,61 38,56.21875 A 24,24 0 0 0 55.210938,39 L 60,39 60,27 55.21875,27 A 24,24 0 0 0 38,9.789062 L 38,5 26,5 Z" style="opacity:.2"/>
 <path d="m 26,4 0,4.78125 A 24,24 0 0 0 8.7890624,26 L 4,26 4,38 8.78125,38 A 24,24 0 0 0 26,55.210938 L 26,60 38,60 38,55.21875 A 24,24 0 0 0 55.210938,38 L 60,38 60,26 55.21875,26 A 24,24 0 0 0 38,8.7890624 L 38,4 26,4 Z" style="fill:#1e80ff"/>
 <rect transform="matrix(0,-1,-1,0,0,0)" x="-47" y="-46" width="28" height="28" rx="14" ry="14" style="opacity:.2"/>
 <rect transform="matrix(0,-1,-1,0,0,0)" x="-46" y="-46" width="28" height="28" rx="14" ry="14" style="fill:#ffffff"/>
 <path d="m26 4v1h12v-1h-12zm0 4.78125a24 24 0 0 0 -17.210938 17.21875h-4.7890625v1h4.7890625a24 24 0 0 1 17.210938 -17.21875v-1zm12 0.0078125v1a24 24 0 0 1 17.21875 17.210938h4.78125v-1h-4.78125a24 24 0 0 0 -17.21875 -17.210938z" style="fill:#ffffff;opacity:.2"/>
</svg>

<svg xmlns="http://www.w3.org/2000/svg" width="64" height="64" version="1">
 <path style="opacity:0.2" d="m 26,5 0,4.78125 A 24,24 0 0 0 8.7890624,27 L 4,27 4,39 8.78125,39 A 24,24 0 0 0 26,56.210938 L 26,61 38,61 38,56.21875 A 24,24 0 0 0 55.210938,39 L 60,39 60,27 55.21875,27 A 24,24 0 0 0 38,9.789062 L 38,5 26,5 Z"/>
 <path style="fill:#1e80ff" d="m 26,4 0,4.78125 A 24,24 0 0 0 8.7890624,26 L 4,26 4,38 8.78125,38 A 24,24 0 0 0 26,55.210938 L 26,60 38,60 38,55.21875 A 24,24 0 0 0 55.210938,38 L 60,38 60,26 55.21875,26 A 24,24 0 0 0 38,8.7890624 L 38,4 26,4 Z"/>
 <rect style="opacity:0.2" width="28" height="28" x="-47" y="-46" rx="14" ry="14" transform="matrix(0,-1,-1,0,0,0)"/>
 <rect style="fill:#ffffff" width="28" height="28" x="-46" y="-46" rx="14" ry="14" transform="matrix(0,-1,-1,0,0,0)"/>
 <path style="opacity:0.2;fill:#ffffff" d="M 26 4 L 26 5 L 38 5 L 38 4 L 26 4 z M 26 8.78125 A 24 24 0 0 0 8.7890625 26 L 4 26 L 4 27 L 8.7890625 27 A 24 24 0 0 1 26 9.78125 L 26 8.78125 z M 38 8.7890625 L 38 9.7890625 A 24 24 0 0 1 55.21875 27 L 60 27 L 60 26 L 55.21875 26 A 24 24 0 0 0 38 8.7890625 z"/>
</svg>
